front/assets/image/icones/user.svg

<?xml version="1.0"?>
<svg xmlns="http://www.w3.org/2000/svg" xmlns:xlink="http://www.w3.org/1999/xlink" xmlns:svgjs="http://svgjs.com/svgjs" version="1.1" width="512" height="512" x="0" y="0" viewBox="0 0 512 512" style="enable-background:new 0 0 512 512" xml:space="preserve"><g><path xmlns="http://www.w3.org/2000/svg" d="m437.019531 74.980469c-48.351562-48.351563-112.640625-74.980469-181.019531-74.980469-68.382812 0-132.667969 26.628906-181.019531 74.980469-48.351563 48.351562-74.980469 112.636719-74.980469 181.019531 0 68.378906 26.628906 132.667969 74.980469 181.019531 48.351562 48.351563 112.636719 74.980469 181.019531 74.980469 68.378906 0 132.667969-26.628906 181.019531-74.980469 48.351563-48.351562 74.980469-112.640625 74.980469-181.019531 0-68.382812-26.628906-132.667969-74.980469-181.019531zm-308.679687 367.40625c10.707031-61.648438 64.128906-107.121094 127.660156-107.121094 63.535156 0 116.953125 45.472656 127.660156 107.121094-36.347656 24.972656-80.324218 39.613281-127.660156 39.613281s-91.3125-14.640625-127.660156-39.613281zm46.261718-218.519531c0-44.886719 36.515626-81.398438 81.398438-81.398438s81.398438 36.515625 81.398438 81.398438c0 44.882812-36.515626 81.398437-81.398438 81.398437s-81.398438-36.515625-81.398438-81.398437zm235.042969 197.710937c-8.074219-28.699219-24.109375-54.738281-46.585937-75.078125-13.789063-12.480469-29.484375-22.328125-46.359375-29.269531 30.5-19.894531 50.703125-54.3125 50.703125-93.363281 0-61.425782-49.976563-111.398438-111.402344-111.398438s-111.398438 49.972656-111.398438 111.398438c0 39.050781 20.203126 73.46875 50.699219 93.363281-16.871093 6.941406-32.570312 16.785156-46.359375 29.265625-22.472656 20.339844-38.511718 46.378906-46.585937 75.078125-44.472657-41.300781-72.355469-100.238281-72.355469-165.574219 0-124.617188 101.382812-226 226-226s226 101.382812 226 226c0 65.339844-27.882812 124.277344-72.355469 165.578125zm0 0" fill="#ffffff" data-original="#000000" style=""/></g></svg>

<svg xmlns="http://www.w3.org/2000/svg" width="512" height="512" viewBox="0 0 512 512"><path xmlns="http://www.w3.org/2000/svg" d="M437.01953 74.98047C388.66797 26.6289 324.37891 0 256 0 187.61719 0 123.33203 26.6289 74.98047 74.98047 26.6289 123.33203 0 187.61719 0 256c0 68.3789 26.6289 132.66797 74.98047 181.01953C123.33203 485.3711 187.61719 512 256 512c68.3789 0 132.66797-26.6289 181.01953-74.98047C485.3711 388.66797 512 324.37891 512 256c0-68.38281-26.6289-132.66797-74.98047-181.01953zM128.33984 442.38672C139.04687 380.73828 192.46875 335.26562 256 335.26562c63.53516 0 116.95312 45.47266 127.66016 107.1211C347.3125 467.35937 303.33594 482 256 482s-91.3125-14.64063-127.66016-39.61328zm46.26172-218.51953c0-44.88672 36.51563-81.39844 81.39844-81.39844s81.39844 36.51562 81.39844 81.39844c0 44.88281-36.51563 81.39843-81.39844 81.39843S174.60156 268.75 174.60156 223.8672zm235.04297 197.71093c-8.07422-28.69921-24.10937-54.73828-46.58594-75.07812-13.78906-12.48047-29.48437-22.32813-46.35937-29.26953 30.5-19.89453 50.70312-54.3125 50.70312-93.36328 0-61.42578-49.97656-111.39844-111.40234-111.39844s-111.39844 49.97266-111.39844 111.39844c0 39.05078 20.20313 73.46875 50.69922 93.36328-16.8711 6.9414-32.57031 16.78515-46.35937 29.26562-22.47266 20.33985-38.51172 46.37891-46.58594 75.07813C57.8828 380.27344 30 321.33594 30 256 30 131.38281 131.38281 30 256 30s226 101.38281 226 226c0 65.33984-27.88281 124.27734-72.35547 165.57812zm0 0" fill="currentColor"/></svg>
